X:19
T:K\"aringtr\"atan
R:sl\"angpolska
H:efter Pelle Fors. Se \"aven #20, #177
N:St\"amning AEAC#
A:\"Osterg\"otland
Z:id:hn-sp-19
M:3/4
L:1/16
K:A
[c4A4E4A,4] e3c dcde|f3d efec d2c2|[c4A4E4A,4] e3c dcde|f2gf e8:|
|:[E2A,2]"+"[c2A2] "arco"[A2E2]"+"[c2A2] "+"[c2A2]"+"[c2A2]|
"arco"A,CEC A,DFD A,CEC|
[E2A,2]"+"[c2A2] "arco"[A2E2]"+"[c2A2] "+"[c2A2]"+"[c2A2]|
"arco"A,CEC A,DFD A,CEC|[E2A,2]Bc d2dB c2cB|cBAB G2A2 A4:|
<end>
<start>
